{ "compressionlevel":-1,
 "height":18,
 "infinite":false,
 "layers":[
        {
         "data":[1, 1, 1, 1, 1, 1, 1, 1, 1, 1, 1, 35, 36, 1, 1, 1, 1, 1, 13, 13, 1, 1, 1, 1, 1,
            1, 1, 1, 1, 1, 1, 1, 1, 1, 2, 3, 35, 36, 1, 1, 1, 1, 1, 21, 21, 13, 1, 1, 1, 1,
            1, 1, 1, 1, 1, 1, 1, 1, 1, 2, 5, 35, 36, 1, 1, 1, 1, 1, 1, 21, 21, 1, 1, 1, 1,
            1, 1, 1, 5, 5, 5, 5, 1, 1, 2, 13, 43, 53, 1, 1, 1, 1, 1, 1, 1, 21, 1, 1, 1, 1,
            1, 1, 1, 1, 1, 1, 1, 5, 1, 2, 21, 51, 52, 1, 1, 1, 1, 1, 1, 1, 21, 1, 1, 1, 1,
            1, 1, 1, 1, 1, 1, 1, 5, 1, 2, 3, 59, 60, 1, 1, 1, 1, 1, 1, 1, 21, 29, 1, 1, 1,
            1, 1, 1, 1, 5, 1, 1, 13, 1, 2, 3, 35, 36, 1, 29, 1, 1, 1, 1, 1, 21, 29, 1, 1, 1,
            1, 1, 1, 1, 5, 5, 1, 21, 54, 2, 3, 43, 44, 1, 1, 1, 1, 1, 1, 1, 1, 1, 1, 1, 1,
            1, 1, 1, 1, 1, 5, 1, 9, 9, 10, 11, 51, 52, 1, 1, 1, 1, 1, 1, 1, 1, 29, 1, 1, 1,
            1, 1, 1, 1, 1, 5, 1, 9, 10, 11, 1, 59, 60, 1, 1, 1, 1, 1, 1, 1, 1, 29, 1, 1, 1,
            1, 1, 1, 1, 5, 1, 1, 1, 1, 1, 1, 43, 44, 1, 1, 1, 1, 1, 1, 1, 1, 1, 1, 1, 1,
            1, 1, 1, 5, 5, 1, 1, 1, 1, 49, 49, 49, 49, 50, 53, 1, 1, 1, 1, 1, 1, 1, 1, 1, 1,
            1, 1, 1, 5, 1, 1, 1, 1, 1, 41, 42, 42, 49, 50, 61, 1, 1, 1, 1, 1, 1, 1, 1, 1, 1,
            1, 1, 1, 5, 1, 1, 1, 1, 1, 57, 58, 58, 57, 58, 61, 1, 1, 1, 1, 1, 1, 1, 1, 1, 1,
            1, 1, 1, 1, 1, 1, 1, 1, 1, 1, 1, 1, 1, 1, 1, 1, 1, 1, 1, 1, 1, 1, 1, 1, 1,
            1, 1, 1, 1, 1, 1, 1, 1, 5, 1, 1, 1, 1, 1, 1, 1, 1, 13, 13, 13, 1, 1, 1, 1, 1,
            1, 1, 1, 1, 1, 1, 1, 1, 1, 1, 1, 1, 1, 1, 1, 1, 1, 21, 21, 21, 1, 1, 1, 1, 1,
            1, 1, 1, 1, 1, 1, 1, 1, 1, 1, 1, 1, 1, 1, 1, 1, 1, 1, 1, 1, 1, 1, 1, 1, 1],
         "height":18,
         "id":4,
         "name":"Capa de patrones 1",
         "opacity":1,
         "type":"tilelayer",
         "visible":true,
         "width":25,
         "x":0,
         "y":0
        }],
 "nextlayerid":7,
 "nextobjectid":1,
 "orientation":"orthogonal",
 "renderorder":"right-down",
 "tiledversion":"1.12.2-2-geb83ddb9",
 "tileheight":32,
 "tilesets":[
        {
         "firstgid":1,
         "source":"../tilesets/tileset.tsx"
        }],
 "tilewidth":32,
 "type":"map",
 "version":"1.10",
 "width":25
}